Icons/Colored/ArrowUp.svg

<svg xmlns="http://www.w3.org/2000/svg" xml:space="preserve" fill-rule="evenodd" stroke-linejoin="round" stroke-miterlimit="2" clip-rule="evenodd" viewBox="0 0 64 64">
  <g id="blue">
    <path fill="#73a7c7" fill-rule="nonzero" d="M57.633 31.469a2.61 2.61 0 0 1-1.063 2.117l-2.519 2.062-.008.004a3.819 3.819 0 0 1-4.73-.043l-.008-.007-12.078-10.387v25.566l-.004.035a3.192 3.192 0 0 1-3.457 2.829h-3.543a3.184 3.184 0 0 1-3.453-2.829l-.004-.035v-25.57L14.684 35.602l-.008.007a3.852 3.852 0 0 1-4.727.047l-.008-.008-2.527-2.062C6 32.547 6 30.391 7.414 29.355l22.238-18.207.008-.007a3.838 3.838 0 0 1 4.676 0l.008.007 22.222 18.207a2.598 2.598 0 0 1 1.063 2.114h.004Z"/>
  </g>
</svg>

<?xml version="1.0" encoding="UTF-8" standalone="no"?>
<!DOCTYPE svg PUBLIC "-//W3C//DTD SVG 1.1//EN" "http://www.w3.org/Graphics/SVG/1.1/DTD/svg11.dtd">
<svg width="100%" height="100%" viewBox="0 0 64 64" version="1.1" xmlns="http://www.w3.org/2000/svg" xmlns:xlink="http://www.w3.org/1999/xlink" xml:space="preserve" xmlns:serif="http://www.serif.com/" style="fill-rule:evenodd;clip-rule:evenodd;stroke-linejoin:round;stroke-miterlimit:2;">
    <g id="surface1">
        <path d="M57.633,31.469C57.633,32.27 57.277,33.066 56.57,33.586L54.051,35.648L54.043,35.652C52.648,36.734 50.688,36.715 49.313,35.609L49.305,35.602L37.227,25.215L37.227,50.781L37.223,50.816C37.039,52.539 35.488,53.805 33.766,53.645L30.223,53.645C28.496,53.805 26.953,52.539 26.77,50.816L26.766,50.781L26.766,25.211L14.684,35.602L14.676,35.609C13.297,36.703 11.348,36.723 9.949,35.656L9.941,35.648L7.414,33.586C6,32.547 6,30.391 7.414,29.355L29.652,11.148L29.66,11.141C31.039,10.082 32.961,10.082 34.336,11.141L34.344,11.148L56.566,29.355C57.277,29.875 57.629,30.672 57.629,31.469L57.633,31.469Z" style="fill:#73a7c7;fill-rule:nonzero;"/>
    </g>
</svg>
